client/public/img/game/shared/weapons/confetti_grenade.svg

<?xml version="1.0" encoding="UTF-8" standalone="no"?>
<svg
   width="83"
   height="92"
   viewBox="0 0 83 92"
   fill="none"
   version="1.1"
   id="svg47"
   xmlns="http://www.w3.org/2000/svg"
   xmlns:svg="http://www.w3.org/2000/svg">
  <defs
     id="defs47" />
  <rect
     x="38.7041"
     y="42.9746"
     width="7.5"
     height="7.5"
     transform="rotate(30 38.7041 42.9746)"
     fill="#7D2DD2"
     id="rect1" />
  <rect
     x="42.4541"
     y="36.4785"
     width="7.5"
     height="7.5"
     transform="rotate(30 42.4541 36.4785)"
     fill="#42BD7D"
     id="rect2" />
  <rect
     x="45.1992"
     y="46.7246"
     width="7.5"
     height="7.5"
     transform="rotate(30 45.1992 46.7246)"
     fill="#42BD7D"
     id="rect3" />
  <rect
     x="48.9492"
     y="40.2285"
     width="7.5"
     height="7.5"
     transform="rotate(30 48.9492 40.2285)"
     fill="#D2B12D"
     id="rect4" />
  <rect
     x="51.6943"
     y="50.4746"
     width="7.5"
     height="7.5"
     transform="rotate(30 51.6943 50.4746)"
     fill="#D2B12D"
     id="rect5" />
  <rect
     x="52.6992"
     y="33.7344"
     width="7.5"
     height="7.5"
     transform="rotate(30 52.6992 33.7344)"
     fill="#D22D2D"
     id="rect6" />
  <rect
     x="55.4443"
     y="43.9785"
     width="7.5"
     height="7.5"
     transform="rotate(30 55.4443 43.9785)"
     fill="#D22D2D"
     id="rect7" />
  <rect
     x="41.4492"
     y="53.2207"
     width="7.5"
     height="7.5"
     transform="rotate(30 41.4492 53.2207)"
     fill="#7D2DD2"
     id="rect8" />
  <rect
     x="44.1943"
     y="63.4648"
     width="7.5"
     height="7.5"
     transform="rotate(30 44.1943 63.4648)"
     fill="#7D2DD2"
     id="rect9" />
  <rect
     x="47.9443"
     y="56.9707"
     width="7.5"
     height="7.5"
     transform="rotate(30 47.9443 56.9707)"
     fill="#42BD7D"
     id="rect10" />
  <rect
     x="34.9541"
     y="49.4707"
     width="7.5"
     height="7.5"
     transform="rotate(30 34.9541 49.4707)"
     fill="#42BD7D"
     id="rect11" />
  <rect
     x="37.6992"
     y="59.7148"
     width="7.5"
     height="7.5"
     transform="rotate(30 37.6992 59.7148)"
     fill="#42BD7D"
     id="rect12" />
  <rect
     x="40.4443"
     y="69.9609"
     width="7.5"
     height="7.5"
     transform="rotate(30 40.4443 69.9609)"
     fill="#42BD7D"
     id="rect13" />
  <rect
     x="23.7041"
     y="68.9551"
     width="7.5"
     height="7.5"
     transform="rotate(30 23.7041 68.9551)"
     fill="#D2B12D"
     id="rect14" />
  <rect
     x="31.2041"
     y="55.9648"
     width="7.5"
     height="7.5"
     transform="rotate(30 31.2041 55.9648)"
     fill="#D2B12D"
     id="rect15" />
  <rect
     x="33.9492"
     y="66.2109"
     width="7.5"
     height="7.5"
     transform="rotate(30 33.9492 66.2109)"
     fill="#D2B12D"
     id="rect16" />
  <rect
     x="36.6943"
     y="76.4551"
     width="7.5"
     height="7.5"
     transform="rotate(30 36.6943 76.4551)"
     fill="#D2B12D"
     id="rect17" />
  <rect
     x="27.4541"
     y="62.4609"
     width="7.5"
     height="7.5"
     transform="rotate(30 27.4541 62.4609)"
     fill="#D22D2D"
     id="rect18" />
  <rect
     x="30.1992"
     y="72.7051"
     width="7.5"
     height="7.5"
     transform="rotate(30 30.1992 72.7051)"
     fill="#D22D2D"
     id="rect19" />
  <path
     d="M19.5314 75.2068C17.4958 72.4679 16.8205 68.8813 17.7998 65.5469L23.7047 68.9561L19.9547 75.4513L19.5314 75.2068Z"
     fill="#42BD7D"
     id="path19" />
  <path
     d="M17.7993 65.5464C18.0411 64.7229 18.3839 63.9148 18.832 63.1387L21.2812 58.8965L27.4542 62.4604L23.7042 68.9556L17.7993 65.5464Z"
     fill="#D2B12D"
     id="path20" />
  <path
     d="M21.2812 58.8956L25.0312 52.4004L31.2042 55.9644L27.4542 62.4595L21.2812 58.8956Z"
     fill="#D22D2D"
     id="path21" />
  <path
     d="M25.0312 52.4014L28.7812 45.9062L34.9542 49.4702L31.2042 55.9654L25.0312 52.4014Z"
     fill="#D2B12D"
     id="path22" />
  <path
     d="M28.7812 45.9053L32.5312 39.4102L38.7042 42.9741L34.9542 49.4693L28.7812 45.9053Z"
     fill="#42BD7D"
     id="path23" />
  <path
     d="M32.5312 39.4112L34.0557 36.7708C34.8478 35.3989 35.8909 34.2621 37.0936 33.385L42.4542 36.48L38.7042 42.9752L32.5312 39.4112Z"
     fill="#7D2DD2"
     id="path24" />
  <path
     d="M37.0927 33.3847C39.467 31.6531 42.4632 30.9337 45.3773 31.4153L42.4533 36.4797L37.0927 33.3847Z"
     fill="#42BD7D"
     id="path25" />
  <path
     d="M45.378 31.4151C46.6476 31.625 47.9016 32.0628 49.0818 32.7441L50.786 33.728L51.2616 32.9043L52.6993 33.7344L48.9493 40.2296L42.4541 36.4796L45.378 31.4151Z"
     fill="#D2B12D"
     id="path26" />
  <path
     d="M55.6868 28.5605L52.6995 33.7347L51.2617 32.9046L53.999 28.1635C54.1367 27.925 54.4427 27.8423 54.682 27.9805L55.6868 28.5605Z"
     fill="#D22D2D"
     id="path27" />
  <path
     d="M62.1817 32.3105L59.1944 37.4847L52.6992 33.7347L55.6865 28.5605L62.1817 32.3105Z"
     fill="#D2B12D"
     id="path28" />
  <path
     d="M60.6253 38.3109L59.1943 37.4847L62.1816 32.3105L63.1796 32.8867C63.4189 33.0249 63.5003 33.3312 63.3626 33.5697L60.6253 38.3109Z"
     fill="#42BD7D"
     id="path29" />
  <path
     d="M60.6253 38.3105L60.1497 39.1343L61.8598 40.1216C63.0403 40.8032 64.0467 41.6705 64.8633 42.6655L61.9395 47.7296L55.4443 43.9796L59.1943 37.4844L60.6253 38.3105Z"
     fill="#D2B12D"
     id="path30" />
  <path
     d="M64.8633 42.666C66.7369 44.9488 67.6117 47.9029 67.2993 50.8246L61.9395 47.7301L64.8633 42.666Z"
     fill="#42BD7D"
     id="path31" />
  <path
     d="M67.2993 50.823C67.141 52.3031 66.6781 53.7749 65.886 55.1468L64.3616 57.7872L58.1895 54.2237L61.9395 47.7285L67.2993 50.823Z"
     fill="#D2B12D"
     id="path32" />
  <path
     d="M64.3616 57.7881L60.6116 64.2833L54.4395 60.7198L58.1895 54.2246L64.3616 57.7881Z"
     fill="#D22D2D"
     id="path33" />
  <path
     d="M60.6116 64.2842L56.8616 70.7794L50.6895 67.2159L54.4395 60.7207L60.6116 64.2842Z"
     fill="#D2B12D"
     id="path34" />
  <path
     d="M56.8616 70.7783L53.1116 77.2735L46.9395 73.71L50.6895 67.2148L56.8616 70.7783Z"
     fill="#42BD7D"
     id="path35" />
  <path
     d="M53.1116 77.2744L50.6624 81.5166C50.2142 82.2927 49.6858 82.9936 49.0935 83.6148L43.1895 80.2061L46.9395 73.7109L53.1116 77.2744Z"
     fill="#7D2DD2"
     id="path36" />
  <path
     d="M49.0935 83.6138C46.6955 86.1291 43.2517 87.3376 39.862 86.9442L39.4395 86.7003L43.1895 80.2051L49.0935 83.6138Z"
     fill="#42BD7D"
     id="path37" />
  <path
     d="M39.862 86.9451C39.6881 86.9249 39.5143 86.9005 39.3409 86.8719L39.4395 86.7012L39.862 86.9451Z"
     fill="#D2B12D"
     id="path38" />
  <path
     d="M39.341 86.8719C38.071 86.6621 36.8167 86.2243 35.6362 85.5427L32.4951 83.7292L32.9443 82.9512L39.4395 86.7012L39.341 86.8719Z"
     fill="#D22D2D"
     id="path39" />
  <path
     d="M32.4952 83.7292L26 79.9792L26.4492 79.2012L32.9444 82.9512L32.4952 83.7292Z"
     fill="#D2B12D"
     id="path40" />
  <path
     d="M26.0001 79.9792L22.8582 78.1653C21.678 77.4839 20.6719 76.6168 19.8554 75.6222L19.9541 75.4512L26.4493 79.2012L26.0001 79.9792Z"
     fill="#42BD7D"
     id="path41" />
  <path
     d="M19.8549 75.6205C19.7431 75.4844 19.6349 75.3459 19.5303 75.2051L19.9536 75.4495L19.8549 75.6205Z"
     fill="#7D2DD2"
     id="path42" />
  <path
     d="M53.999 28.163C54.1367 27.9245 54.4426 27.8418 54.682 27.98L63.1799 32.8862C63.4192 33.0244 63.5006 33.3307 63.3629 33.5692L60.15 39.1341L61.86 40.1214C67.1213 43.159 68.9234 49.8873 65.8863 55.1477L50.6627 81.5158C47.6256 86.7762 40.8977 88.5797 35.6364 85.5421L22.8583 78.1647C17.597 75.1271 15.7949 68.3988 18.832 63.1384L34.0557 36.7703C37.0928 31.5098 43.8207 29.7064 49.0819 32.744L50.7861 33.7279L53.999 28.163Z"
     stroke="#191A14"
     stroke-width="4"
     id="path43" />
  <path
     d="M71.1184 22.191C70.9222 22.5308 70.7949 22.9059 70.7438 23.295C70.6927 23.6841 70.7188 24.0794 70.8205 24.4585C70.9222 24.8376 71.0976 25.193 71.3367 25.5044C71.5758 25.8159 71.8739 26.0771 72.214 26.2734C72.554 26.4698 72.9294 26.5973 73.3186 26.6487C73.7078 26.7 74.1033 26.6742 74.4825 26.5728C74.8616 26.4713 75.2171 26.2962 75.5285 26.0574C75.8398 25.8186 76.1011 25.5208 76.2973 25.181C76.4934 24.8412 76.6207 24.4661 76.6718 24.077C76.7229 23.688 76.6969 23.2925 76.5952 22.9134C76.4935 22.5343 76.318 22.179 76.079 21.8676C75.8399 21.5562 75.5418 21.2948 75.2017 21.0985C74.8617 20.9022 74.4863 20.7747 74.097 20.7234C73.7078 20.672 73.3124 20.6977 72.9332 20.7992C72.554 20.9006 72.1986 21.0758 71.8872 21.3146C71.5758 21.5534 71.3146 21.8512 71.1184 22.191Z"
     fill="#453C47"
     stroke="#181519"
     stroke-width="4"
     stroke-miterlimit="3.99393"
     id="path44" />
  <path
     d="M51.7663 19.3261L35.711 17.1964L18.9301 34.1534L23.1423 39.1907L39.7261 22.5751L46.8876 23.4802L51.7663 19.3261Z"
     fill="#48354E"
     stroke="#19131B"
     stroke-width="4"
     stroke-miterlimit="3.99393"
     id="path45" />
  <path
     d="M69.6982 20.0694L70.2296 21.6778L73.666 23.6618L65.5684 27.2224L63.614 33.1362C63.614 33.1362 54.0008 27.586 53.8696 27.5102L46.8882 23.4796L58.4919 13.5994L69.6982 20.0694Z"
     fill="#48354E"
     stroke="#19131B"
     stroke-width="4"
     stroke-miterlimit="3.99393"
     stroke-linecap="square"
     id="path46" />
  <path
     fill-rule="evenodd"
     clip-rule="evenodd"
     d="M44.475 37.8793C49.9875 41.0619 57.0359 39.1729 60.2186 33.6605C63.4012 28.148 61.5128 21.0994 56.0004 17.9167C50.4884 14.7344 43.4395 16.6231 40.2568 22.1356C37.0742 27.648 38.963 34.6969 44.475 37.8793ZM46.5229 34.3323C50.077 36.3843 54.6215 35.1674 56.6733 31.6136C58.726 28.0582 57.5077 23.514 53.9535 21.462C50.3993 19.41 45.8549 20.627 43.8021 24.1825C41.7504 27.7362 42.9687 32.2803 46.5229 34.3323Z"
     fill="#A29CA2"
     stroke="#222022"
     stroke-width="2"
     stroke-miterlimit="3.99393"
     id="path47" />
</svg>

<svg xmlns="http://www.w3.org/2000/svg" width="83" height="92" fill="none"><path fill="#7D2DD2" d="m38.704 42.975 6.495 3.75-3.75 6.495-6.495-3.75z"/><path fill="#42BD7D" d="m42.454 36.478 6.495 3.75-3.75 6.495-6.495-3.75zM45.199 46.725l6.495 3.75-3.75 6.495-6.495-3.75z"/><path fill="#D2B12D" d="m48.95 40.228 6.494 3.75-3.75 6.495-6.495-3.75zM51.694 50.475l6.495 3.75-3.75 6.495-6.495-3.75z"/><path fill="#D22D2D" d="m52.7 33.734 6.494 3.75-3.75 6.495-6.495-3.75z"/><path fill="#D22D2D" d="m55.444 43.978 6.495 3.75-3.75 6.495-6.495-3.75z"/><path fill="#7D2DD2" d="m41.449 53.22 6.495 3.75-3.75 6.496-6.495-3.75z"/><path fill="#7D2DD2" d="m44.194 63.465 6.495 3.75-3.75 6.495-6.495-3.75z"/><path fill="#42BD7D" d="m47.944 56.97 6.495 3.75-3.75 6.496-6.495-3.75zM34.954 49.47l6.495 3.75-3.75 6.496-6.495-3.75z"/><path fill="#42BD7D" d="m37.699 59.715 6.495 3.75-3.75 6.495-6.495-3.75z"/><path fill="#42BD7D" d="m40.444 69.96 6.495 3.75-3.75 6.496-6.495-3.75z"/><path fill="#D2B12D" d="m23.704 68.955 6.495 3.75-3.75 6.495-6.495-3.75zM31.204 55.965l6.495 3.75-3.75 6.495-6.495-3.75z"/><path fill="#D2B12D" d="m33.949 66.21 6.495 3.75-3.75 6.496-6.495-3.75z"/><path fill="#D2B12D" d="m36.694 76.455 6.495 3.75-3.75 6.495-6.495-3.75z"/><path fill="#D22D2D" d="m27.454 62.46 6.495 3.75-3.75 6.496-6.495-3.75zM30.2 72.705l6.494 3.75-3.75 6.495-6.495-3.75z"/><path fill="#42BD7D" d="M19.531 75.207a11.02 11.02 0 0 1-1.731-9.66l5.905 3.41-3.75 6.494z"/><path fill="#D2B12D" d="M17.8 65.546c.241-.823.584-1.631 1.032-2.407l2.45-4.242 6.172 3.563-3.75 6.496z"/><path fill="#D22D2D" d="m21.281 58.896 3.75-6.496 6.173 3.564-3.75 6.496z"/><path fill="#D2B12D" d="m25.031 52.401 3.75-6.495 6.173 3.564-3.75 6.495z"/><path fill="#42BD7D" d="m28.781 45.905 3.75-6.495 6.173 3.564-3.75 6.495z"/><path fill="#7D2DD2" d="m32.531 39.411 1.525-2.64a11 11 0 0 1 3.038-3.386l5.36 3.095-3.75 6.495z"/><path fill="#42BD7D" d="M37.093 33.385a11.04 11.04 0 0 1 8.284-1.97l-2.924 5.065z"/><path fill="#D2B12D" d="M45.378 31.415c1.27.21 2.524.648 3.704 1.33l1.704.983.476-.824 1.437.83-3.75 6.496-6.495-3.75z"/><path fill="#D22D2D" d="M55.687 28.56 52.7 33.736l-1.438-.83 2.737-4.742a.5.5 0 0 1 .683-.183z"/><path fill="#D2B12D" d="m62.182 32.31-2.988 5.175-6.495-3.75 2.988-5.174z"/><path fill="#42BD7D" d="m60.625 38.31-1.43-.825 2.987-5.175.998.577a.5.5 0 0 1 .183.683z"/><path fill="#D2B12D" d="m60.625 38.31-.475.824 1.71.988a11 11 0 0 1 3.003 2.544L61.94 47.73l-6.496-3.75 3.75-6.496z"/><path fill="#42BD7D" d="M64.863 42.666a11.04 11.04 0 0 1 2.436 8.159l-5.36-3.095z"/><path fill="#D2B12D" d="M67.3 50.823a11 11 0 0 1-1.414 4.324l-1.524 2.64-6.172-3.563 3.75-6.495z"/><path fill="#D22D2D" d="m64.362 57.788-3.75 6.495-6.172-3.563 3.75-6.495z"/><path fill="#D2B12D" d="m60.612 64.284-3.75 6.495-6.172-3.563 3.75-6.495z"/><path fill="#42BD7D" d="m56.862 70.778-3.75 6.495-6.172-3.563 3.75-6.495z"/><path fill="#7D2DD2" d="m53.112 77.274-2.45 4.243a11 11 0 0 1-1.569 2.098l-5.904-3.409 3.75-6.495z"/><path fill="#42BD7D" d="M49.094 83.614a11.02 11.02 0 0 1-9.232 3.33l-.422-.244 3.75-6.495z"/><path fill="#D2B12D" d="M39.862 86.945q-.261-.03-.521-.073l.099-.17z"/><path fill="#D22D2D" d="M39.341 86.872a11 11 0 0 1-3.705-1.33l-3.14-1.813.448-.778 6.496 3.75z"/><path fill="#D2B12D" d="M32.495 83.73 26 79.98l.45-.779 6.494 3.75z"/><path fill="#42BD7D" d="m26 79.98-3.142-1.815a11 11 0 0 1-3.003-2.543l.1-.17 6.494 3.75z"/><path fill="#7D2DD2" d="M19.855 75.62q-.168-.204-.325-.415l.424.245z"/><path stroke="#191A14" stroke-width="4" d="M53.999 28.163a.5.5 0 0 1 .683-.183l8.498 4.906a.5.5 0 0 1 .183.683l-3.213 5.565 1.71.987c5.261 3.038 7.063 9.766 4.026 15.027L50.663 81.516c-3.037 5.26-9.765 7.064-15.027 4.026l-12.778-7.377c-5.261-3.038-7.063-9.766-4.026-15.027L34.056 36.77c3.037-5.26 9.765-7.064 15.026-4.026l1.704.984z"/><path fill="#453C47" stroke="#181519" stroke-miterlimit="3.994" stroke-width="4" d="M71.118 22.191a2.985 2.985 0 0 0 1.096 4.082 2.99 2.99 0 0 0 4.083-1.092 2.987 2.987 0 0 0-1.095-4.082 2.99 2.99 0 0 0-4.084 1.092Z"/><path fill="#48354E" stroke="#19131B" stroke-miterlimit="3.994" stroke-width="4" d="m51.766 19.326-16.055-2.13-16.78 16.957 4.211 5.038 16.584-16.616 7.162.905z"/><path fill="#48354E" stroke="#19131B" stroke-linecap="square" stroke-miterlimit="3.994" stroke-width="4" d="m69.698 20.07.532 1.608 3.436 1.984-8.098 3.56-1.954 5.914-9.744-5.626-6.982-4.03 11.604-9.88z"/><path fill="#A29CA2" fill-rule="evenodd" stroke="#222022" stroke-miterlimit="3.994" stroke-width="2" d="M44.475 37.88c5.512 3.182 12.56 1.293 15.744-4.22C63.4 28.149 61.513 21.1 56 17.917c-5.512-3.183-12.56-1.294-15.743 4.219-3.183 5.512-1.294 12.56 4.218 15.743Zm2.048-3.548a7.43 7.43 0 1 0 7.43-12.87 7.43 7.43 0 1 0-7.43 12.87Z" clip-rule="evenodd"/></svg>
